X:1
T:Judas Maccabeus
T:G F Handel
T:10 11 11 11 & refrain
T:Thine be the glory
%%score { ( 1 2 ) | ( 3 4 ) }
L:1/8
M:none
K:Eb
V:1 treble nm="Piano"
V:2 treble 
V:3 bass 
V:4 bass 
V:1
 B4 G3 A | B4 E4 | FG AB A2 G2 | F8 || GA Bc B2 B2 | e4 B4 | A2 GF F3 E | E8 || GF GA G2 G2 | %9
 F4 E4 | A2 G2 F2 E2 | D8 || ED EF E2 E2 | c4 =A4 | B2 cB =A3 B | B8 || B4 G3 A | B4 E4 | %18
 FG AB A2 G2 | F8 || GA Bc B2 B2 | e4 B4 | A2 GF F3 E | E8 |] %24
V:2
 G4 E3 D | E4 E4 | DE FG F2 E2 | D8 || E3 E E2 F2 | B4 E4 | D2 E2 E2 D2 | B,8 || ED EF E2 E2 | %9
 D4 C4 | F2 E2 D2 C2 | =B,8 || C=B, CD C2 C2 | F4 E4 | D2 G2 F2 F2 | F8 || G4 E3 D | E4 E4 | %18
 DE FG F2 E2 | D8 || E6 [DF]2 | [EB]4 E4 | D2 E4 D2 | B,8 |] %24
V:3
 E4 B,3 A, | G,4 B,4 | A,2 F,2 B,2 B,2 | B,8 || B,3 A, B,2 D2 | E4 G,4 | A,2 B,2 B,2 F,2 | G,8 || %8
 B,2 B,2 B,2 B,2 | A,4 G,4 | =B,2 C2 A,2 G,2 | G,8 || G,2 G,2 G,2 G,2 | C4 C4 | B,2 ED C3 C | D8 || %16
 E4 B,3 A, | G,4 B,4 | A,2 F,2 B,2 B,2 | B,8 || B,3 A, B,2 F,2 | G,4 G,4 | A,2 B,4 F,2 | G,8 |] %24
V:4
 E,4 G,3 F, | E,4 G,4 | F,3 E, D,2 E,2 | B,,8 || E,F, G,A, G,2 B,2 | G,4 E,4 | F,2 G,A, B,2 B,,2 | %7
 E,8 || E,2 E,2 E,2 G,,2 | B,,4 C,4 | D,2 E,2 F,2 C,2 | G,,8 || C,2 G,2 C,2 B,,2 | =A,,4 F,4 | %14
 G,2 E,2 F,2 F,,2 | B,,8 || E,4 G,3 F, | E,4 G,4 | F,3 E, D,2 E,2 | B,,8 || E,F, G,A, G,2 B,,2 | %21
 G,,4 E,2 E,,2 | F,,2 G,,A,, B,,2 B,,2 | [E,,E,]8 |] %24

